web/packages/design/src/ResourceIcon/assets/email-light.svg

<svg width="72" height="72" viewBox="0 0 72 72" fill="none" xmlns="http://www.w3.org/2000/svg">
<path fill-rule="evenodd" clip-rule="evenodd" d="M0 17C0 12.0294 4.02944 8 9 8H63C67.9706 8 72 12.0294 72 17V55C72 59.9706 67.9706 64 63 64H9C4.02944 64 0 59.9706 0 55V17ZM2 17C2 13.134 5.13401 10 9 10H63C66.866 10 70 13.134 70 17V17.9525C70 20.3911 68.7309 22.6539 66.6501 23.9255L39.6501 40.4255C37.4094 41.7948 34.5906 41.7948 32.3498 40.4255L5.34985 23.9255C3.26907 22.6539 2 20.3911 2 17.9525V17ZM70 23.6095V55C70 58.866 66.866 62 63 62H9C5.13401 62 2 58.866 2 55V23.6095C2.63832 24.3995 3.41457 25.0867 4.30695 25.632L31.3069 42.132C34.188 43.8926 37.812 43.8926 40.693 42.132L67.693 25.632C68.5854 25.0867 69.3617 24.3995 70 23.6095Z" fill="black"/>
</svg>

<svg xmlns="http://www.w3.org/2000/svg" width="72" height="72" fill="none" viewBox="0 0 72 72"><path fill="#000" fill-rule="evenodd" d="M0 17a9 9 0 0 1 9-9h54a9 9 0 0 1 9 9v38a9 9 0 0 1-9 9H9a9 9 0 0 1-9-9zm2 0a7 7 0 0 1 7-7h54a7 7 0 0 1 7 7v.953a7 7 0 0 1-3.35 5.973l-27 16.5a7 7 0 0 1-7.3 0l-27-16.5A7 7 0 0 1 2 17.953zm68 6.61V55a7 7 0 0 1-7 7H9a7 7 0 0 1-7-7V23.61a9 9 0 0 0 2.307 2.022l27 16.5a9 9 0 0 0 9.386 0l27-16.5A9 9 0 0 0 70 23.609" clip-rule="evenodd"/></svg>
